X:11202
T:Swinging on the Gate
R:Reel
B:Tuneworks Tunebook (https://www.tuneworks.co.uk/)
G:tuneworks
Z:Jon Warbrick <jon.warbrick@googlemail.com>
M:4/4
L:1/8
K:G
|: "G"gedB G2 AB | "Am"cABG AGEG | "G"DGBd g2 g2 | "D"fgag fdef | 
"G"gedB G2 AB | "C"cABG AGEG | "Am"cABG AGEG | "D"DGGF  "G"GABd :|
|: "G"!turn!g3 a bagf | "Em"gfed B2 AG | "Am"EGGB cBAG | "D"(3EFG AB cdef | 
"G"!turn!g3 a bagf | "Em"gfed edBd | "C"cABG AGEG | "D"DGGF "G"GABd :| 